X:6113
T:Slow broke the light. CJF.159
O:england
M:2/4
L:1/8
Q:180
S: C.J.Fox MS, 1829/33, Beverley,E.Yorks.
R:Air
A:East Yorkshire
B:Kidson Coll.Mitchell Lib.M1805
N:"C J Fox" is on the stave after the tune. - PJH.
K:C
c|c2c>d|e2ze|e2{g/}fe|e2(ce)|g2g>g|a2bc'|(egfd)|c2z:||:d|d2e^f|
gbzd|d2cB|B2zd|(e^fga)|bgze|(d>g)(^fa)|g2zg|(ac')(ba)|g2ec|
ac'ba|g2ce|g2gg|a2bc'|(g/^f/a/g/) (=f/e/f/d/)c2z||


